!!!SOCIAL_FUNCTION:	isleta
!!!PDT:	1957
!!!OTL: No_45_Song_to_a_Bee.krn
!!!LING_GROUP: Keresan
!!!LANG: Tone
!!!REG: Southwest
**kern
*staff1
=1-
*clefF4
*k[f#c#]
*M3/4
2r
8.r
16B\
=2
4d\
4d\
8.d\L
16B\Jk
=3
4d\
4d\
8d\
8r
=4!|:
8d\L
8f#\J
8d\L
16.B\L
32c#\JJk
4d\
=5
*M2/4
8A\L
8B\J
8A\L
16.A\L
32F#\JJk
=6
4A\
4A\
=7
8A\L
8A\J
8A\
8r
=8
*M3/4
8d\L
8e\J
8d\L
16.B\L
32c#\JJk
4d\
=9
*M2/4
8A\L
8B\J
8.A\L
16F#\Jk
=10
*M3/4
8.A\L
16F#\Jk
16A\LL
16F#\J
8D\J
8D\
8r
=11
*M2/4
8d\L
8d\J
8d\L
8d\J
=12
8B\L
16B\L
16c#\JJ
8B\L
16A\Jk
16r
=13
16A\LL
16F#\
16D\
16D\JJ
8.F#\L
16D\Jk
=14
*M3/4
8F#\L
16F#\L
[16D\JJ
8D\L]
8D\J
8D\
8r
=15
*M2/4
16F#\LK
8.D\J
4D\
=16
16F#\LK
8.D\J
4D\
=17
8r
8D\
8D\
8r
=18:|!
8D\L
8D\J
4D\
=19
8D\L
8D\J
8D\
8r
=20
8d\L
8d\J
8d\L
8d\J
=21
8B\L
16B\L
16c#\JJ
8B\L
16A\Jk
16r
=22
16A\LL
16F#\
16D\
16D\JJ
8.F#\L
16D\Jk
=23
*M3/4
8F#\L
16F#\L
[16D\JJ
8D\L]
8D\J
8D\
8r
=24
*M2/4
8F#\L
8D\J
8D\
8r
=25
8A\L
8A\J
8F#\L
16D\L
16D\JJ
=26
*M3/4
8F#\L
8A\J
16F#\LK
8.D\J
8D\
8r
=27
*M2/4
8D\L
8F#\J
8D/L
8BB/J
=28
8D\L
8D\J
8D\L
8D\J
=29
*M3/4
8D\L
8A\J
8A\L
16F#\L
16F#\JJ
8D\
8r
=30
32F#\LLK
16.D\J
8D\J
16F#\LL
16D\J
8.D\
16D\L
16F#\
16A\JJ
=31
8D\L
8D\J
8D\L
8D\J
8D\L
8D\J
==
*-
